X: 37403
T: Sleepy Maggie
R: reel
M: 4/4
K: Gdorian
|:e2 Aa edB<d|e2 g2 B<GB<d|e2 Aa edB<d|e>fg>e d<GB<d:|
|:eA A2 eAB<d|eA A2 B<GB<d|eA A2 eAB<d|e>fg>e d<GB<d:|

